assets/img/Brands/the-avengers1.svg

<svg width="82" height="29" viewBox="0 0 82 29" fill="none" xmlns="http://www.w3.org/2000/svg">
<path d="M27.1992 7.20483L24.0857 14.7477L25.3942 7.20483H21.9874L19.8215 23.2389H23.4991L30.6963 7.20483H27.1992V7.20483ZM32.1624 16.468H35.1181L35.9754 13.6229H33.0198L34.0802 10.0941H37.1035L37.9834 7.20483H31.5307L26.7025 23.2389H33.0424L34.1705 20.1953H31.0343L32.1624 16.468ZM12.8993 26.5229C11.1276 26.5229 9.45959 26.0841 8.00032 25.3105L7.13059 27.068C8.85271 27.9683 10.8158 28.4781 12.8993 28.4781C16.8374 28.4781 20.3444 26.6562 22.6075 23.8191H19.9189C18.0707 25.4975 15.6065 26.5229 12.8993 26.5229ZM15.084 20.4449V22.1016L19.2536 18.9723L15.2185 15.2642V16.8683H10.9142L15.2185 6.87553V14.2386L18.7038 17.4613L18.7904 0.484985H14.9764L1.04184 28.6137L5.66887 28.7023L9.40782 20.4449H15.084V20.4449ZM3.8825 21.3496C3.01393 19.849 2.51745 18.1109 2.51745 16.2581C2.51745 11.0977 6.36936 6.82713 11.3855 6.10254L12.4027 4.04914C5.80718 4.30702 0.539948 9.67409 0.539948 16.2582C0.539948 18.9007 1.38843 21.3474 2.83056 23.3464L3.8825 21.3496V21.3496ZM18.697 23.2389V20.2098L15.0798 23.2389H18.697V23.2389ZM70.1332 15.6299C70.968 15.6299 71.4417 15.1447 71.5771 14.6815L73.2241 9.23393C73.54 8.17529 73.0662 7.20488 71.5997 7.20488H65.3951L60.5669 23.2389H63.9737L66.0268 16.4019H67.1549C67.5611 16.4019 67.6062 16.6886 67.5159 16.9533L65.6208 23.239H69.0276L70.7874 17.3944C71.1485 16.2475 70.6521 15.7181 70.1332 15.6299ZM69.5917 10.447L68.6892 13.4244C68.5313 13.9096 68.238 14.042 67.8995 14.042H66.7264L68.0124 9.7853H69.0728C69.5917 9.7853 69.7271 10.0279 69.5917 10.447V10.447ZM43.9395 7.20483L42.0669 13.4023L41.9541 7.20483H39.0435L34.2153 23.2389H37.4191L39.382 16.8429L39.6753 23.2389H42.4053L47.2335 7.20483H43.9395V7.20483ZM77.9392 10.0941H80.9174L81.7973 7.20483H76.5404C75.7282 7.20483 74.916 7.42538 74.5324 8.5502L72.6598 14.7697C72.3214 15.9386 72.6598 16.7106 74.0812 16.7106H75.8862C76.0893 16.7106 76.0893 16.7988 76.0441 16.9311L75.2544 19.6439C75.1191 20.0409 75.0288 20.1953 74.3971 20.1953H71.5543L70.6292 23.2389H76.202C76.9014 23.2389 77.646 22.9081 77.8265 22.2684L79.6991 16.0489C80.1729 14.483 79.4058 13.8214 78.1874 13.8214H76.3599L77.33 10.5572C77.4428 10.2043 77.6911 10.0941 77.9392 10.0941V10.0941ZM50.9334 13.6229L50.0761 16.468H50.7755L49.5346 20.5703H48.3839C47.9327 20.5703 47.7296 20.3938 47.865 19.9307L50.6852 10.5793C50.798 10.1823 50.9786 10.094 51.3396 10.094H54.6562L55.5361 7.20478H50.0986C49.0157 7.20478 48.2711 7.51356 47.9101 8.70451L44.4356 20.2614C43.8039 22.3787 45.0899 23.2389 46.6241 23.2389H48.7224L48.3614 24.496L52.1518 22.6213L54.8592 13.6228H50.9334V13.6229ZM58.5141 16.468H61.4697L62.3271 13.6229H59.3714L60.4318 10.0941H63.4551L64.335 7.20483H57.8823L53.0541 23.2389H59.394L60.5221 20.1953H57.386L58.5141 16.468Z" fill="black"/>
</svg>

<svg width="82" height="29" fill="none" xmlns="http://www.w3.org/2000/svg"><path d="M27.2 7.205l-3.114 7.543 1.308-7.543h-3.407l-2.165 16.034h3.677l7.197-16.034H27.2zm4.962 9.263h2.956l.857-2.845H33.02l1.06-3.529h3.023l.88-2.89h-6.452L26.703 23.24h6.34l1.127-3.044h-3.136l1.128-3.727zM12.9 26.523A10.43 10.43 0 018 25.31l-.87 1.757c1.723.9 3.686 1.41 5.77 1.41a12.39 12.39 0 009.708-4.659h-2.69a10.408 10.408 0 01-7.019 2.704zm2.185-6.078v1.657l4.17-3.13-4.036-3.708v1.604h-4.304l4.305-9.992v7.363l3.485 3.222L18.79.485h-3.814L1.042 28.614l4.627.088 3.739-8.257h5.676zm-11.201.905a10.13 10.13 0 01-1.366-5.092c0-5.16 3.852-9.43 8.869-10.155l1.017-2.054C5.807 4.307.54 9.674.54 16.26c0 2.642.848 5.088 2.29 7.087l1.052-1.996zm14.814 1.889v-3.03l-3.617 3.03h3.617zm51.436-7.61c.835 0 1.309-.484 1.444-.947l1.647-5.448c.316-1.059-.158-2.03-1.624-2.03h-6.205L60.567 23.24h3.407l2.053-6.837h1.128c.406 0 .451.287.36.551l-1.894 6.286h3.407l1.76-5.845c.36-1.146-.136-1.676-.655-1.764zm-.541-5.182l-.903 2.977c-.158.486-.451.618-.79.618h-1.173l1.286-4.257h1.06c.52 0 .655.243.52.662zM43.94 7.205l-1.873 6.197-.113-6.197h-2.91l-4.829 16.034h3.204l1.963-6.396.293 6.396h2.73l4.828-16.034H43.94zm34 2.89h2.977l.88-2.89H76.54c-.812 0-1.624.22-2.008 1.345l-1.872 6.22c-.339 1.169 0 1.94 1.421 1.94h1.805c.203 0 .203.089.158.221l-.79 2.713c-.135.397-.225.551-.857.551h-2.843l-.925 3.044h5.573c.7 0 1.444-.33 1.624-.97l1.873-6.22c.474-1.566-.293-2.228-1.512-2.228H76.36l.97-3.264c.113-.353.361-.463.61-.463zm-27.007 3.528l-.857 2.845h.7l-1.241 4.102h-1.151c-.451 0-.654-.176-.519-.64l2.82-9.35c.113-.398.294-.486.655-.486h3.316l.88-2.89H50.1c-1.083 0-1.828.31-2.189 1.5l-3.474 11.557c-.632 2.118.654 2.978 2.188 2.978h2.098l-.36 1.257 3.79-1.875 2.707-8.998h-3.926zm7.581 2.845h2.956l.857-2.845h-2.956l1.06-3.529h3.024l.88-2.89h-6.453L53.054 23.24h6.34l1.128-3.044h-3.136l1.128-3.727z" fill="#000"/></svg>
